X:1
T:Wagner - Piano Sonata in Bb Major.
C:Richard Wagner.
%%score { ( 1 4 ) | ( 2 3 ) }
L:1/8
Q:1/4=180
M:4/4
K:Bb
V:1 treble nm="Piano" snm="Pno."
V:4 treble 
V:2 bass 
V:3 bass 
V:1
!f!"^Allegro con brio." [DFB]2 z2 [Fcf]2 z2 | [Bdb]2 z2 z4 | [cgbc']2 z2"^SONATE." [fac'f']2 z2 | %3
[Q:1/4=200] [dfb]2 z2!p! z2 D"^Richard Wagner."F | !>!B2 AB !>!c2 Bc | d2 !>![Ff]2 z dcB | %6
 [FA]2 [FB]2 [Fc]2 [FBd]2 | [FAc]2 !>![Ff]2 z FGA | !>!B2 AB !>!c2 Bc | d2 [Ff]2 z fFf | %10
 feGc B2 dc | B2 z2 z d{/f}ed | d2 !>![Gg]4 [Ff]2 | ([Ff]2 [Ee]2) .[Ee]2 .[Dd]2 | %14
 [Dd]2 [Cc]2 [Ee]2 [Cc]2 | [FB]4{/cB} [FA] c{/e}dc | d2"_cresc." [Gg]4 [Ff]2 | %17
 [Ff]2 [Ee]2 [Ee]2 [Dd]2 | [Dd]2 [Cc]2 [Ee]2 [Cc]2 | [DFB]2 z2 [CFA]2 z2 | %20
!ff! [DFB]2 z2 [Fcf]2 z2 | [Bdb]2 z2 z4 | [cgbc']2 z2 [fac'f']2 z2 | [dfb]2 z2 z2 df | %24
!f! !>!b2 ab!f! !>!c'2 bc' | d'2!f! !>![ff']2 z d'c'b | [fa]2 [fb]2 [fc']2 [fbd']2 | %27
 [fac']2!f! !>![ff']2 z fga |!f! !>!b2 ab!f! !>!c'2 bc' | d'2 [ff']2 z f'ff' | %30
 f'e'gc' [dfb]2 [cfa]2 | [dfb]2 z2 z2 [Bb]2 |!f!"_sempre" [Aa]2 [Gg][Aa] [Bb]2 [cc'][dd'] | %33
 [ee']2 [ff'][ee'] [dd']2 [cc'][Bb] | [Aa]2 [Gg][Aa] [Bb]2 [cc'][dd'] | %35
 [ee']2 [ff'][ee'] [dd']2 [ee'][dd'] | [cc']2 [dd'][cc'] [Bb]2 [Aa][Gg] | %37
 [^F^f]2 [=E=e][Ff] [Gg]2 [Aa][Bb] | [cc']2 [dd'][cc'] [Bb]2 [Aa][Gg] | %39
 [^F^f]2 [=E=e][Ff] [Gg]2 [Ff][Gg] | [Aa]2 [Aa][Bb] [cc']2 [dd'][cc'] | %41
 [Bb]2 [cc'][Bb] [Aa]2 [Bb][Aa] | [Gg]2 [^F^f][Gg] [Aa]2 [Gg][Aa] | %43
 [Bb]2 [cc'][Bb] [Aa]2 [Bb][Aa] |!f! [GBdg]2 z2 [dad']2 z2 | [gbg']2 z2 z4 | [GBe]2 z2 [Bfb]2 z2 | %47
 [ege']2 z2 z4 |!fff! [EGc]2 z2 [Gdg]2 z2 | [cec']2 z2 z4 |!p!!ped! z2 [E_Gc]2 z2 [_DFB]2 | %51
 z2 [CF_A]2 z2 [=EB=e]2!ped-up! |!f! [F_Af]2 [=E=e][Ff] [Gg]2 [_A_a][Gg] | %53
 [Ff]2 [=E=e][Ff] [Gg]2 [_A_a]!ped![Gg] |!p! [Ff]2 [F_A]2 z2 [FB_d]2 | %55
 z2 [F_Ac]2 z2 [=E=e]2!ped-up! |!f! [Ff]2!<(! [=E=e][Ff] [Gg]2 [Ff][Gg]!<)! | %57
!f! [_A_a]2 [Gg][Aa]!>(! [Bb]2 [Aa][Gg]!>)! | .[Ff]2 z2 z2 =AB |"_dolce"!p! (c2 a2 g2 =e2) | %60
 (gf=ed) c2 AB | (c2 ^c2 d2 B2) | (A3 B/A/ G2) AB | (c2 a2 g2 =e2) | (gf=ed) c2 AB | %65
 c2 ([^FAd]2 [GB]2) ([=EGc]2 | =F2) (F2 =E2 [_EF]2) | [CEF]2 z2 z2 (A,B, | C2 A2 G2) (AB | %69
 c2 [Bb]2 [Aa]2 [Gg]2) |!<(! ([Gg]2 [^G^g]2 [Aa]2)!<)! z2 | z4 z2 (A,B, | C2 A2 G2) AB | %73
 c2 ([Bb]2 [Aa]2) [Gg]2 |!p!!>(! (([Aa]4!>)!!p! [Gg]2)) AB | (c2 a2 g2 =e2) | (gf=ed) c2 AB | %77
 (c2 ^c2 d2 B2) | (A3 B/A/ G2) AB | (c2 a2 g2 =e2) | (gf=ed) c2 !>!^c2 | (!>!=ed=cB) A2 !>!=B2 | %82
 (dc_BA) G2!f! ([A=ea]2 | [Adf]2) ([Gdg]2 [Gc=e]2)!p! !>!^c2 | (=ed=cB) A2!f! ([Bfb]2 | %85
 [B_eg]2) ([Aea]2 [Adf]2)!p! !>!=e2 | gf=ed c2 !>!f2 | bagf =e2 !>!b2 | c'bag f2 !>!c'2 | %89
!f! (d'c'ba gf=ed) | (c=B_BG) F2 F2 |!p!!<(! =E2 DE F2 GA | B2 cB A2!<)!!mf! (a2 | %93
!>(! b2 c'b a2 gf | =e2 de f2)!>)! F2 |!p! =E2 DE F2 GA | B2 AB"_cresc." c2 Bc | d2 cd _e2 de | %98
 f2 ef g2 fg | _a2 fg a2 fg | _a2 fg a2 [Ff][Gg] |!ff! [=A=a]gf=e dcBA | cBAG F=EDE | %103
 F3 (3(G/A/B/) c3 (3(c/d/=e/) | f4- f=e/d/ c/B/A/G/ | F2 =EF G2 FG | AGAB c2 z2 | %107
 F3 (3(G/A/B/) c3 (3(c/d/=e/) | f4- f=e/d/ c/B/A/G/ | F3 (3(G/A/B/) c3 (3(c/d/=e/) | %110
 f2 F2 !breath!z4 ||!f! [DFB]2 z2 [Fcf]2 z2 | [Bdb]2 z2 z4 | [cgbc']2 z2 [fac'f']2 z2 | %114
 [dfb]2 z2!p! z2 DF | !>!B2 AB !>!c2 Bc | d2 !>![Ff]2 z dcB | [FA]2 [FB]2 [Fc]2 [FBd]2 | %118
 [FAc]2 !>![Ff]2 z FGA | !>!B2 AB !>!c2 Bc | d2 [Ff]2 z fFf | feGc B2 dc | B2 z2 z d{/f}ed | %123
 d2 !>![Gg]4 [Ff]2 | ([Ff]2 [Ee]2) .[Ee]2 .[Dd]2 | [Dd]2 [Cc]2 [Ee]2 [Cc]2 | %126
 [FB]4{/cB} [FA] c{/e}dc | d2"_cresc." [Gg]4 [Ff]2 | [Ff]2 [Ee]2 [Ee]2 [Dd]2 | %129
 [Dd]2 [Cc]2 [Ee]2 [Cc]2 | [DFB]2 z2 [CFA]2 z2 |!ff! [DFB]2 z2 [Fcf]2 z2 | [Bdb]2 z2 z4 | %133
 [cgbc']2 z2 [fac'f']2 z2 | [dfb]2 z2 z2 df |!f! !>!b2 ab!f! !>!c'2 bc' | %136
 d'2!f! !>![ff']2 z d'c'b | [fa]2 [fb]2 [fc']2 [fbd']2 | [fac']2!f! !>![ff']2 z fga | %139
!f! !>!b2 ab!f! !>!c'2 bc' | d'2 [ff']2 z f'ff' | f'e'gc' [dfb]2 [cfa]2 | [dfb]2 z2 z2 [Bb]2 | %143
!f!"_sempre" [Aa]2 [Gg][Aa] [Bb]2 [cc'][dd'] | [ee']2 [ff'][ee'] [dd']2 [cc'][Bb] | %145
 [Aa]2 [Gg][Aa] [Bb]2 [cc'][dd'] | [ee']2 [ff'][ee'] [dd']2 [ee'][dd'] | %147
 [cc']2 [dd'][cc'] [Bb]2 [Aa][Gg] | [^F^f]2 [=E=e][Ff] [Gg]2 [Aa][Bb] | %149
 [cc']2 [dd'][cc'] [Bb]2 [Aa][Gg] | [^F^f]2 [=E=e][Ff] [Gg]2 [Ff][Gg] | %151
 [Aa]2 [Aa][Bb] [cc']2 [dd'][cc'] | [Bb]2 [cc'][Bb] [Aa]2 [Bb][Aa] | %153
 [Gg]2 [^F^f][Gg] [Aa]2 [Gg][Aa] | [Bb]2 [cc'][Bb] [Aa]2 [Bb][Aa] |!f! [GBdg]2 z2 [dad']2 z2 | %156
 [gbg']2 z2 z4 | [GBe]2 z2 [Bfb]2 z2 | [ege']2 z2 z4 | [EGc]2 z2 [Gdg]2 z2 | [cec']2 z2 z4 | %161
!p!!ped! z2 [E_Gc]2 z2 [_DFB]2 | z2 [CF_A]2 z2 [=EB=e]2!ped-up! | %163
!f! [F_Af]2 [=E=e][Ff] [Gg]2 [_A_a][Gg] | [Ff]2 [=E=e][Ff] [Gg]2 [_A_a]!ped![Gg] | %165
!p! [Ff]2 [F_A]2 z2 [FB_d]2 | z2 [F_Ac]2 z2 [=E=e]2!ped-up! | %167
!f! [Ff]2!<(! [=E=e][Ff] [Gg]2 [Ff][Gg]!<)! |!f! [_A_a]2 [Gg][Aa]!>(! [Bb]2 [Aa][Gg]!>)! | %169
 [Ff]2 z2 z2 =AB |"_dolce"!p! (c2 a2 g2 =e2) | (gf=ed) c2 AB | (c2 ^c2 d2 B2) | (A3 B/A/ G2) AB | %174
 (c2 a2 g2 =e2) | (gf=ed) c2 AB | c2 ([^FAd]2 [GB]2) ([=EGc]2 | =F2) (F2 =E2 [_EF]2) | %178
 [CEF]2 z2 z2 (A,B, | C2 A2 G2) (AB | c2 [Bb]2 [Aa]2 [Gg]2) |!<(! ([Gg]2 [^G^g]2 [Aa]2)!<)! z2 | %182
 z4 z2 (A,B, | C2 A2 G2) AB | c2 ([Bb]2 [Aa]2) [Gg]2 |!p!!>(! (([Aa]4!>)!!p! [Gg]2)) AB | %186
 (c2 a2 g2 =e2) | (gf=ed) c2 AB | (c2 ^c2 d2 B2) | (A3 B/A/ G2) AB | (c2 a2 g2 =e2) | %191
 (gf=ed) c2 !>!^c2 | (!>!=ed=cB) A2 !>!=B2 | (dc_BA) G2!f! ([A=ea]2 | %194
 [Adf]2) ([Gdg]2 [Gc=e]2)!p! !>!^c2 | (=ed=cB) A2!f! ([Bfb]2 | [B_eg]2) ([Aea]2 [Adf]2)!p! !>!=e2 | %197
 gf=ed c2 !>!f2 | bagf =e2 !>!b2 | c'bag f2 !>!c'2 |!f! (d'c'ba gf=ed) | (c=B_BG) F2 F2 | %202
!p!!<(! =E2 DE F2 GA | B2 cB A2!<)!!mf! (a2 |!>(! b2 c'b a2 gf | =e2 de f2)!>)! F2 | %206
!p! =E2 DE F2 GA | B2 AB"_cresc." c2 Bc | d2 cd _e2 de | f2 ef g2 fg | _a2 fg a2 fg | %211
 _a2 fg a2 [Ff][Gg] |!ff! [=A=a]gf=e dcBA | cBAG F=EDE | F3 (3(G/A/B/) c3 (3(c/d/=e/) | %215
 f4- f=e/d/ c/B/A/G/ | F2 =EF G2 FG | AGAB c2 z2 | F3 (3(G/A/B/) c3 (3(c/d/=e/) | %219
 f4- f=e/d/ c/B/A/G/ | F3 (3(G/A/B/) c3 (3(c/d/=e/) | f2 F2 !breath!z4 |!f! [_DFB]2 z2 [Fcf]2 z2 | %223
 [B_db]2 z2 z2!f! B,_D | _G2 FG _A2 GA | B2 !>!_d2 z4 | [_GBe]2 z2 [Bfb]2 z2 | %227
 [e_ge']2 z2 z2!f! x2 | x4 _D2 CD | E2 !>!_G2 z4 |!p! [=A=c=d]2 z2 [cda]2 z2 | [dac']2 z2 z2 ab | %232
 c'2 =bc' d'2 a2 | _b2 z2 z4 |!p! [GBc]2 z2 [Bcg]2 z2 | [cgb]2 z2 z2 ga | b2 ab !>!c'2 g2 | %237
 a2!pp! z2 z2 A,C | F2 =EF G2 FG | A2 !>![Cc]2 z2 A,C |!<(! F=EFG AFGA!<)! | %241
!mp! B2 !>![_D_d]2 z2 DF | B2"_cresc." AB c2 Bc | _d2 [Ff]2 z2 _DF | BABc _dBcd | %245
 e2 [_G_g]2 z2 GB | _e2 de f2 ef | _g2 [Bb]2 z2 _GB | e2 f_g _abc'd' | %249
!ff!!ped! [_c'e']e[c'e']e [c'e']e[c'e']e | [_c'e']e[c'e']e [c'e']e[c'e']e | %251
 [_c'e']e[c'e']e [c'e']e[c'e']e |!>(! [=ae']e[ae']e [ae']e[ae']e!>)! | %253
 [=d_a=d']2!ped-up!!p! z2 z4 | z4 z2!p! [B,B]2- |"_dolce" [B,B]2 ([_A_a]2 [Gg]2 [Ff]2) | %256
 [Gf](edc) B2 z2 | z8 | z4 z2 [B,B]2- | [B,B]2!p! ([_G_g]2 [Ff]2 [Ee]2) | ([Ee]_dcB) _A2 z2 | z8 | %262
 z4 z2 [_A,_A]2- | [A,A]2!<(! ([Ee]2 [=D=d]2 [Cc]2)!<)! | [=G=g]2 z2 z2 G2- | G2!p! (=e2 d2 c2) | %266
 [Gg]2 z2 z2 G2- | G2 (=e2 d2 c2) | [Gg]2 z2 z2 =EG |!<(! c2 =Bc d2 cd | =e2!<)!!mp! [Gg]2 z2 =EG | %271
"_cresc." c=Bcd =ecde | f2 [_A_a]2 z2 Ac | f2 =ef g2 fg | _a2 [cc']2 z2 _Ac | f=efg _afga | %276
 b2 [_d_d']2 z2 df | b2 ab c'2 bc' | _d'2 [ff']2 z2 _df | b2 c'_d' e'f'g'a' | %280
!ff!!ped! [_g'b']b[g'b']b [g'b']b[g'b']b | [_g'b']b[g'b']b [g'b']b[g'b']b | %282
 [_g'b']b[g'b']b [g'b']b[g'b']b |!>(! [=e'b']b[e'b']b [e'b']b[e'b']b!>)! | %284
 [=ac'_e'=a']2!ped-up!!p! z2 z4 | z4 z2 [Ff]2- | [Ff]2 ([ee']2 [dd']2 [cc']2) | ([dc']bag) f2 z2 | %288
 z8 | z4 z2!p! [Ff]2- | [Ff]2!>(! ([_d_d']2 [cc']2 [Bb]2) | ([Bb]_agf)!>)!!pp! e2 z2 | z8 | z8 | %294
 z8 | z8 | z8 | z8 | z8 | z8 | z8 | z8 | z8 | z8 | z8 | z8 | z8 | z8 | z8 | z8 | z8 | z8 | z8 | %313
 z8 | z8 | z8 | z8 | z8 | z8 | z8 | z8 | z8 | z8 | z8 | z8 | z8 | z8 | z8 | z8 | z8 | z8 | z8 | %332
 z8 | z8 | z8 | z8 | z8 | z8 | z8 | z8 | z8 | z8 | z8 | z8 | z8 | z8 | z8 | z8 | z8 | z8 | z8 | %351
 z8 | z8 | z8 | z8 | z8 | z8 | z8 | z8 | z8 | z8 | z8 | z8 | z8 | z8 | z8 | z8 | z8 | z8 | z8 | %370
 z8 | z8 | z8 | z8 | z8 | z8 | z8 | z8 | z8 | z8 | z8 | z8 | z8 | z8 | z8 | z8 | z8 | z8 | z8 | %389
 z8 | z8 | z8 | z8 | z8 | z8 | z8 | z8 | z8 | z8 | z8 | z8 | z8 | z8 | z8 | z8 | z8 | z8 | z8 | %408
 z8 | z8 | z8 | z8 | z8 | z8 | z8 | z8 | z8 | z8 | z8 | z8 | z8 | z8 | z8 | z8 | z8 | z8 | z8 | %427
 z8 | z8 | z8 | z8 | z8 | z8 | z8 | z8 | z8 | z8 | z8 | z8 | z8 | z8 | z8 | z8 | z8 | z8 | z8 | %446
 z8 | z8 | z8 | z8 | z8 | z8 | z8 | z8 | z8 | z8 | z8 | z8 | z8 | z8 | z8 | z8 | z8 | z8 | z8 | %465
 z8 | z8 | z8 | z8 | z8 | z8 | z8 | z8 | z8 | z8 | z8 | z8 | z8 | z8 | z8 | z8 | z8 | z8 | z8 | %484
 z8 | z8 | z8 | z8 | z8 | z8 | z8 | z8 | z8 | z8 | z8 | z8 | z8 | z8 | z8 | z8 | z8 | z8 | z8 | %503
 z8 | z8 | z8 | z8 | z8 | z8 | z8 | z8 | z8 | z8 | z8 | z8 | z8 | z8 | z8 | z8 | z8 | z8 | z8 | %522
 z8 | z8 | z8 | z8 | z8 | z8 | z8 | z8 | z8 | z8 | z8 | z8 | z8 | z8 | z8 | z8 | z8 | z8 | z8 | %541
 z8 | z8 | z8 | z8 | z8 | z8 | z8 | z8 | z8 | z8 | z8 | z8 | z8 | z8 | z8 | z8 | z8 | z8 | z8 | %560
 z8 |] %561
V:2
 [B,,B,]2 z2 [A,,A,]2 z2 | [G,,G,]2 z2 z4 | [E,,E,]2 z2 [F,,F,]2 z2 | D,!f!F,D,F, D,F,B,F, | %4
 D,F,D,F, E,F,E,F, | D,F,D,F, D,F,D,F, | E,F,D,F, E,F,D,F, | [C,E,]F,[C,E,]F, [C,E,]F,[C,E,]F, | %8
 D,F,D,F, E,F,E,F, | D,F,D,F, D,F,D,F, | C,E,C,E, D,B,,A,,F, | B,,D,F,B, D,F,B,D | B,DB,D A,CA,C | %13
 G,B,G,B, F,A,F,A, | E,G,E,G, E,G,E,G, | F,B,DB, F,A,EA, | B,DB,D A,CA,C | G,B,G,B, F,A,F,A, | %18
 E,G,E,G, E,G,E,G, | F,F,,B,,D, F,F,,A,,C, | [B,,B,]2 z2 [A,,A,]2 z2 | [G,,G,]2 z2 z4 | %22
 [E,,E,]2 z2 [F,,F,]2 z2 | D,F,B,F, A,F,E,F, | D,F,B,F, A,F,E,F, | B,F,D,F, B,F,D,F, | %26
 CF,B,F, A,F,B,F, | F,C,A,,C, F,E,C,F, | B,F,D,F, A,F,E,F, | B,F,D,F, B,F,D,F, | %30
 E,C,E,C, F,D,F,D, | D,F,D,F, D,F,D,F, | E,F,E,F, D,F,D,F, | C,F,C,F, B,,F,D,F, | %34
 E,F,E,F, D,F,D,F, | C,F,C,F, B,,F,D,F, | ^F,,D,A,,D, G,,D,B,,D, | A,,D,C,D, B,,D,G,,D, | %38
 ^F,,D,A,,D, G,,D,B,,D, | A,,D,C,D, B,,G,D,G, | [C,E,]A,[C,E,]A, [C,E,]A,[C,E,]A, | %41
 [D,G,]B,[D,G,]B, [D,^F,]C[D,F,]C | [E,G,]B,[E,G,]B, [C,E,]A,[C,E,]A, | %43
 [D,G,]B,[D,G,]B, [D,^F,]A,[D,F,]A, | [G,,G,]2 z2 [=F,,=F,]2 z2 | [E,,E,]2 z2 z4 | %46
 [E,,E,]2 z2 [D,,D,]2 z2 | [C,,C,]2 z2 z4 | [C,,C,]2 z2 [B,,,B,,]2 z2 | [_A,,,_A,,]2 z2 z4 | %50
 =A,,2 z2 B,,2 z2 | C,2 z2 [C,G,B,]2 z2 | [F,_A,]2 [F,A,]4 [F,A,]2- | [F,A,]2 [F,_A,]4 [F,A,]2 | %54
 [_D,F,_A,]2 z2 [B,,F,B,]2 z2 | [C,F,_A,]2 z2 [C,G,B,]2 z2 | z2 [F,_A,]2 z2 [F,B,_D]2 | %57
 z2 [E,_A,C]2 z2 [=E,B,]2 | .=A,2 .C,2 .F,2 [F,A,C]2 | (C4 ^C4 | [B,D]4 [A,=C]2) z2 | %61
 [F,A,]2 z2 [B,,D,G,]2 z2 | [C,F,A,]2 z2 [C,=E,C]2 z2 | (C4 ^C4 | [B,D]4 [A,=C]2) z2 | A,2 D4 C2 | %66
 A,2 z2 z2 A,,B,, | C,2 (A,2 G,2 F,2 | _E,6) D,2 | z2 [=E,G,]2 z2 [E,B,]2 | (B,4!mp! A,2) A,,B,, | %71
 (C,2 A,2 G,2 F,2) | _E,6 D,2 | z2 [=E,G,]2 z2 [E,B,]2 | (A,2 =B,2 C2) z2 | (C4 ^C4 | %76
 [B,D]4 [A,=C]2) z2 | [F,A,]2 z2 [B,,D,G,]2 z2 | [C,F,A,]2 z2 [C,=E,C]2 z2 | (C4 ^C4 | %80
 [B,D]4 [A,=C]2) A,2 | [G,B,]4 [F,A,]2 G,2 | [F,A,]4 [=E,G,]2 ([^C,^C]2 | %83
 [D,D]2) ([=B,,=B,]2 [=C,=C]2) [=E,G,A,]2 | [D,G,B,]4 [D,F,A,]2 ([D,D]2 | %85
 [E,E]2) ([C,C]2 [D,D]2) [G,B,C]2 | [F,B,D]4 [F,A,C]2 [E,F,A,C]2 | [D,F,B,]4 [C,G,B,]2 z2 | %88
 [=E,G,C]4 [F,A,C]2 z2 | [B,,D,G,]2 z2 [C,F,A,]2 z2 | [C,=E,C]4 A,CA,C | B,CB,C A,CA,C | %92
 G,CG,C F,CF,C | =E,CE,C F,CF,C | G,CG,C A,CA,C | B,CB,C A,CA,C | G,CG,C A,CA,F | %97
[K:treble] B,FB,F CFCF | DFDB EBEB | FBFD[K:bass] B,DB,F, | D,F,=B,F, _D,F,B,F, | %101
 C,F,A,F, C,F,A,F, | C,G,B,G, C,G,B,G, | F,A,F,A, =E,G,E,G, | D,F,D,F, [B,,D,]G,[B,,D,]G, | %105
 [C,F,]A,[C,F,]A, [C,E,]G,[C,E,]G, | F,CA,F, =E,G,E,C, | F,A,F,A, =E,G,E,G, | %108
 D,F,D,F, [B,,D,]G,[B,,D,]G, | [C,F,]A,[C,F,]A, [C,E,]G,[C,E,]G, | [F,,F,]2 [F,,,F,,]2 z4 || %111
 [B,,B,]2 z2 [A,,A,]2 z2 | [G,,G,]2 z2 z4 | [E,,E,]2 z2 [F,,F,]2 z2 | D,!f!F,D,F, D,F,B,F, | %115
 D,F,D,F, E,F,E,F, | D,F,D,F, D,F,D,F, | E,F,D,F, E,F,D,F, | [C,E,]F,[C,E,]F, [C,E,]F,[C,E,]F, | %119
 D,F,D,F, E,F,E,F, | D,F,D,F, D,F,D,F, | C,E,C,E, D,B,,A,,F, | B,,D,F,B, D,F,B,D | B,DB,D A,CA,C | %124
 G,B,G,B, F,A,F,A, | E,G,E,G, E,G,E,G, | F,B,DB, F,A,EA, | B,DB,D A,CA,C | G,B,G,B, F,A,F,A, | %129
 E,G,E,G, E,G,E,G, | F,F,,B,,D, F,F,,A,,C, | [B,,B,]2 z2 [A,,A,]2 z2 | [G,,G,]2 z2 z4 | %133
 [E,,E,]2 z2 [F,,F,]2 z2 | D,F,B,F, A,F,E,F, | D,F,B,F, A,F,E,F, | B,F,D,F, B,F,D,F, | %137
 CF,B,F, A,F,B,F, | F,C,A,,C, F,E,C,F, | B,F,D,F, A,F,E,F, | B,F,D,F, B,F,D,F, | %141
 E,C,E,C, F,D,F,D, | D,F,D,F, D,F,D,F, | E,F,E,F, D,F,D,F, | C,F,C,F, B,,F,D,F, | %145
 E,F,E,F, D,F,D,F, | C,F,C,F, B,,F,D,F, | ^F,,D,A,,D, G,,D,B,,D, | A,,D,C,D, B,,D,G,,D, | %149
 ^F,,D,A,,D, G,,D,B,,D, | A,,D,C,D, B,,G,D,G, | [C,E,]A,[C,E,]A, [C,E,]A,[C,E,]A, | %152
 [D,G,]B,[D,G,]B, [D,^F,]C[D,F,]C | [E,G,]B,[E,G,]B, [C,E,]A,[C,E,]A, | %154
 [D,G,]B,[D,G,]B, [D,^F,]A,[D,F,]A, | [G,,G,]2 z2 [=F,,=F,]2 z2 | [E,,E,]2 z2 z4 | %157
 [E,,E,]2 z2 [D,,D,]2 z2 | [C,,C,]2 z2 z4 | [C,,C,]2 z2 [B,,,B,,]2 z2 | [_A,,,_A,,]2 z2 z4 | %161
 =A,,2 z2 B,,2 z2 | C,2 z2 [C,G,B,]2 z2 | [F,_A,]2 [F,A,]4 [F,A,]2- | [F,A,]2 [F,_A,]4 [F,A,]2 | %165
 [_D,F,_A,]2 z2 [B,,F,B,]2 z2 | [C,F,_A,]2 z2 [C,G,B,]2 z2 | z2 [F,_A,]2 z2 [F,B,_D]2 | %168
 z2 [E,_A,C]2 z2 [=E,B,]2 | =A,2 .C,2 .F,2 [F,A,C]2 | (C4 ^C4 | [B,D]4 [A,=C]2) z2 | %172
 .[F,A,]2 z2 .[B,,D,G,]2 z2 | .[C,F,A,]2 z2 .[C,=E,C]2 z2 | (C4 ^C4 | [B,D]4 [A,=C]2) z2 | %176
 A,2 D4 C2 | A,2 z2 z2 A,,B,, | C,2 (A,2 G,2 F,2 | _E,6) D,2 | z2 [=E,G,]2 z2 [E,B,]2 | %181
 (B,4!mp! A,2) A,,B,, | (C,2 A,2 G,2 F,2) | _E,6 D,2 | z2 [=E,G,]2 z2 [E,B,]2 | (A,2 =B,2 C2) z2 | %186
 (C4 ^C4 | [B,D]4 [A,=C]2) z2 | .[F,A,]2 z2 .[B,,D,G,]2 z2 | .[C,F,A,]2 z2 .[C,=E,C]2 z2 | %190
 (C4 ^C4 | [B,D]4 [A,=C]2) A,2 | [G,B,]4 [F,A,]2 G,2 | [F,A,]4 [=E,G,]2 ([^C,^C]2 | %194
 [D,D]2) ([=B,,=B,]2 [=C,=C]2) [=E,G,A,]2 | [D,G,B,]4 [D,F,A,]2 ([D,D]2 | %196
 [E,E]2) ([C,C]2 [D,D]2) [G,B,C]2 | [F,B,D]4 [F,A,C]2 [E,F,A,C]2 | [D,F,B,]4 [C,G,B,]2 z2 | %199
 [=E,G,C]4 [F,A,C]2 z2 | [B,,D,G,]2 z2 [C,F,A,]2 z2 | [C,=E,C]4 A,CA,C | B,CB,C A,CA,C | %203
 G,CG,C F,CF,C | =E,CE,C F,CF,C | G,CG,C A,CA,C | B,CB,C A,CA,C | G,CG,C A,CA,F | %208
[K:treble] B,FB,F CFCF | DFDB EBEB | FBFD[K:bass] B,DB,F, | D,F,=B,F, _D,F,B,F, | %212
 C,F,A,F, C,F,A,F, | C,G,B,G, C,G,B,G, | F,A,F,A, =E,G,E,G, | D,F,D,F, [B,,D,]G,[B,,D,]G, | %216
 [C,F,]A,[C,F,]A, [C,E,]G,[C,E,]G, | F,CA,F, =E,G,E,C, | F,A,F,A, =E,G,E,G, | %219
 D,F,D,F, [B,,D,]G,[B,,D,]G, | [C,F,]A,[C,F,]A, [C,E,]G,[C,E,]G, | [F,,F,]2 [F,,,F,,]2 z4 | %222
 [B,,B,]2 z2 [_A,,_A,]2 z2 | [_G,,_G,]2 z2 z2 B,,_D, | _G,2 F,G, _A,2 G,A, | B,2 !>!_D2 z4 | %226
 [E,,E,]2 z2 [_D,,_D,]2 z2 | [_C,,_C,]2 z2 z2 E,_G, | _C2 B,C _D,2 _C,D, | E,2 [_G,,_G,]2 z4 | %230
 [^F,=C=D]2 z2 [F,CD]2 z2 | [^F,CD]2 z2 z4 | [^F,A,]2 D2 A,2 F,2 | [G,B,]2 (G,A,) .B,2 .G,2 | %234
 =E,2 z2 [E,B,C]2 z2 | [=E,B,C]2 z2 z4 | [=E,G,]2 (C2 G,2 E,2) | [F,A,]2 (A,,C,) .F,2 .C,2 | %238
 [F,,A,,C,]F,[F,,A,,C,]F, [F,,B,,_D,]=E,[F,,B,,D,]E, | %239
 [F,,A,,C,]F,[F,,A,,C,]F, [F,,A,,C,]F,[F,,A,,C,]F, | %240
 [F,,A,,C,]F,[F,,A,,C,]F, [F,,A,,C,]F,[F,,A,,C,]F, | [_B,,D,]F,[B,,D,]F, [B,,D,]F,[B,,D,]F, | %242
 [_B,,D,]F,[B,,D,]F, [B,,E,_G,]A,[B,,E,G,]A, | [B,,_D,F,]B,[B,,D,F,]B, [B,,D,F,]B,[B,,D,F,]B, | %244
 [B,,_D,F,]B,[B,,D,F,]B, [B,,D,F,]B,[B,,D,F,]B, | [E,_G,]B,[E,G,]B, [E,G,]B,[E,G,]B, | %246
 [E,_G,]B,[E,G,]B, [E,_A,]_C[E,A,]C | [E,_G,]B,[E,G,]B, [E,G,]B,[E,G,]B, | %248
 [E,_G,]B,[E,G,]B, [E,G,]2 [E,G,]2 | _C,_G,,_A,,B,, C,B,,C,_D, | E,2 [_G,,_G,]2 z2 E,,G,, | %251
 _C,_G,,_A,,B,, C,B,,C,_D, | E,2 [_G,,_G,]2 [E,,E,]2 [_C,,_C,]2 | %253
 [B,,,B,,]2 [B,,D,_A,]2 z2 [B,,D,A,]2 | [B,,D,_A,]2 [B,,D,A,]2 z2 [B,,D,A,]2 | %255
 [B,,D,_A,]2 [B,,D,A,]2 z2 [B,,D,A,]2 | [B,,E,G,]2 [B,,E,G,]2 z2 [B,,E,G,]2 | %257
 [B,,E,_G,]2 [B,,E,G,]2 z2 [B,,E,G,]2 | [B,,E,_G,]2 [B,,E,G,]2 z2 [B,,E,G,]2 | %259
 [B,,E,_G,]2 [B,,E,G,]2 z2 [B,,E,G,]2 | [_A,,C,_G,]2 [A,,C,G,]2 z2 [A,,C,G,]2 | %261
 [_A,,C,_G,]2 [A,,C,G,]2 z2 [A,,C,G,]2 | [_A,,C,_G,]2 [A,,C,G,]2 z2 [A,,C,G,]2 | %263
 [_A,,C,_G,]2 [A,,C,G,]2 z2 [A,,C,G,]2 |!mp! [=G,,=B,,=G,]2 [G,,B,,D,G,]2 z2 [G,,B,,D,G,]2 | %265
 [G,,C,=E,G,]2 [G,,C,E,G,]2 z2 [G,,C,E,G,]2 | [G,,=B,,D,G,]2 [G,,B,,D,G,]2 z2 [G,,B,,D,G,]2 | %267
 [G,,C,=E,G,]2 [G,,C,E,G,]2 z2 [G,,C,E,G,]2 | [G,,=B,,D,G,]2 (=E,G,) .C2 .G,2 | %269
 [C,=E,]G,[C,E,]G, [C,_F,A,]=B,[C,F,A,]B, | [C,=E,G,]C[C,E,G,]C [C,E,G,]C[C,E,G,]C | %271
 [C,=E,G,]C[C,E,G,]C [C,E,G,]C[C,E,G,]C | [F,_A,]C[F,A,]C [F,A,]C[F,A,]C | %273
 [F,_A,]C[F,A,]C [F,B,_D]=E[F,B,D]E | [D,_F,A,]F[D,F,A,]F [D,F,A,]F[D,F,A,]F | %275
 [D,_F,A,]F[D,F,A,]F [D,F,A,]F[D,F,A,]F |[K:treble] [B,_D]F[B,D]F [B,D]F[B,D]F | %277
 [B,_D]F[B,D]F [B,E]G[B,E]G | [B,_D]F[B,D]F [B,D]F[B,D]F | [B,_D]F[B,D]F [B,D]F[B,D]F | %280
[K:bass] _G,_D,E,F, G,F,G,_A, | B,2 [_D,_D]2 z2 B,,_D, | _G,_D,E,F, G,F,G,_A, | %283
 B,2 [_D,_D]2 [B,,B,]2 [_G,,_G,]2 | [F,,F,]2 [F,=A,_E]2 z2 [F,A,E]2 | %285
 [F,A,E]2 [F,A,E]2 z2 [F,A,E]2 |"^dolce" [F,A,E]2 [F,A,E]2 z2 [F,A,E]2 | %287
 [F,B,D]2 [F,B,D]2 z2 [F,B,D]2 | [F,B,_D]2 [F,B,D]2 z2 [F,B,D]2 | [F,B,_D]2 [F,B,D]2 z2 [F,B,D]2 | %290
 [F,B,_D]2 [F,B,D]2 z2 [F,B,D]2 | [E,B,_D]2 [E,B,D]2 z2 [E,G,D]2 | [E,G,_D]2 [E,G,D]2 z2 [E,G,D]2 | %293
 z8 | z8 | z8 | z8 | z8 | z8 | z8 | z8 | z8 | z8 | z8 | z8 | z8 | z8 | z8 | z8 | z8 | z8 | z8 | %312
 z8 | z8 | z8 | z8 | z8 | z8 | z8 | z8 | z8 | z8 | z8 | z8 | z8 | z8 | z8 | z8 | z8 | z8 | z8 | %331
 z8 | z8 | z8 | z8 | z8 | z8 | z8 | z8 | z8 | z8 | z8 | z8 | z8 | z8 | z8 | z8 | z8 | z8 | z8 | %350
 z8 | z8 | z8 | z8 | z8 | z8 | z8 | z8 | z8 | z8 | z8 | z8 | z8 | z8 | z8 | z8 | z8 | z8 | z8 | %369
 z8 | z8 | z8 | z8 | z8 | z8 | z8 | z8 | z8 | z8 | z8 | z8 | z8 | z8 | z8 | z8 | z8 | z8 | z8 | %388
 z8 | z8 | z8 | z8 | z8 | z8 | z8 | z8 | z8 | z8 | z8 | z8 | z8 | z8 | z8 | z8 | z8 | z8 | z8 | %407
 z8 | z8 | z8 | z8 | z8 | z8 | z8 | z8 | z8 | z8 | z8 | z8 | z8 | z8 | z8 | z8 | z8 | z8 | z8 | %426
 z8 | z8 | z8 | z8 | z8 | z8 | z8 | z8 | z8 | z8 | z8 | z8 | z8 | z8 | z8 | z8 | z8 | z8 | z8 | %445
 z8 | z8 | z8 | z8 | z8 | z8 | z8 | z8 | z8 | z8 | z8 | z8 | z8 | z8 | z8 | z8 | z8 | z8 | z8 | %464
 z8 | z8 | z8 | z8 | z8 | z8 | z8 | z8 | z8 | z8 | z8 | z8 | z8 | z8 | z8 | z8 | z8 | z8 | z8 | %483
 z8 | z8 | z8 | z8 | z8 | z8 | z8 | z8 | z8 | z8 | z8 | z8 | z8 | z8 | z8 | z8 | z8 | z8 | z8 | %502
 z8 | z8 | z8 | z8 | z8 | z8 | z8 | z8 | z8 | z8 | z8 | z8 | z8 | z8 | z8 | z8 | z8 | z8 | z8 | %521
 z8 | z8 | z8 | z8 | z8 | z8 | z8 | z8 | z8 | z8 | z8 | z8 | z8 | z8 | z8 | z8 | z8 | z8 | z8 | %540
 z8 | z8 | z8 | z8 | z8 | z8 | z8 | z8 | z8 | z8 | z8 | z8 | z8 | z8 | z8 | z8 | z8 | z8 | z8 | %559
 z8 | z8 |] %561
V:3
 x8 | x8 | x8 | B,,2 B,,2 B,,2 B,,2 | B,,2 B,,2 B,,2 B,,2 | B,,2 B,,2 B,,2 B,,2 | %6
 C,2 D,2 A,,2 B,,2 | F,,2 z2 z2 F,,2 | B,,2 B,,2 B,,2 B,,2 | B,,2 B,,2 B,,2 B,,2 | %10
 E,,2 E,,2 F,,2 F,,2 | B,,2 x6 | x8 | x8 | x8 | x8 | x8 | x8 | x8 | x8 | x8 | x8 | x8 | %23
 B,,2 z2 B,,2 z2 | B,,2 z2 B,,2 z2 | B,,2 z2 B,,2 z2 | C,2 D,2 A,,2 B,,2 | F,,2 z2 F,,2 z2 | %28
 B,,2 z2 B,,2 z2 | B,,2 z2 B,,2 z2 | E,,2 z2 F,,2 F,,2 | B,,2 z2 z4 | E,2 z2 D,2 z2 | %33
 C,2 z2 B,,2 z2 | E,2 z2 D,2 z2 | C,2 z2 B,,2 z2 | ^F,,2 z2 G,,2 z2 | A,,2 z2 B,,2 z2 | %38
 ^F,,2 z2 G,,2 z2 | A,,2 z2 B,,2 B,,2 | x8 | x8 | x8 | x8 | x8 | x8 | x8 | x8 | x8 | x8 | x8 | x8 | %52
 (_D,2 C,2 =B,,2 C,2) | (_D,2 C,2 =B,,2 C,2) | x8 | x8 | _D,2 z2 B,,2 z2 | C,2 z2 C,2 z2 | %58
 .F,2 x6 | [F,-A,]8 | F,4 F,2 x2 | x8 | x8 | [F,-A,]8 | F,4 F,2 x2 | F,2 (D,2 G,2) (C,2 | F,2) x6 | %67
 x8 | x8 | C,2 z2 C,2 z2 | (([C,=E,]4 F,2)) x2 | x8 | x8 | C,2 z2 C,2 z2 | (F,4 [C,=E,]2) x2 | %75
 [F,-A,]8 | F,4 F,2 x2 | x8 | x8 | [F,-A,]8 | F,4 F,2 [=E,G,]2 | D,4 D,2 [D,F,]2 | C,4 C,2 x2 | %83
 x8 | x8 | x8 | x8 | x8 | x8 | x8 | x4 F,2 z2 | x8 | x8 | x8 | x8 | x8 | x8 |[K:treble] x8 | x8 | %99
 x4[K:bass] x4 | x8 | x8 | x8 | x8 | x8 | x8 | x8 | x8 | x8 | x8 | x8 || x8 | x8 | x8 | %114
 B,,2 B,,2 B,,2 B,,2 | B,,2 B,,2 B,,2 B,,2 | B,,2 B,,2 B,,2 B,,2 | C,2 D,2 A,,2 B,,2 | %118
 F,,2 z2 z2 F,,2 | B,,2 B,,2 B,,2 B,,2 | B,,2 B,,2 B,,2 B,,2 | E,,2 E,,2 F,,2 F,,2 | B,,2 x6 | x8 | %124
 x8 | x8 | x8 | x8 | x8 | x8 | x8 | x8 | x8 | x8 | B,,2 z2 B,,2 z2 | B,,2 z2 B,,2 z2 | %136
 B,,2 z2 B,,2 z2 | C,2 D,2 A,,2 B,,2 | F,,2 z2 F,,2 z2 | B,,2 z2 B,,2 z2 | B,,2 z2 B,,2 z2 | %141
 E,,2 z2 F,,2 F,,2 | B,,2 z2 z4 | E,2 z2 D,2 z2 | C,2 z2 B,,2 z2 | E,2 z2 D,2 z2 | C,2 z2 B,,2 z2 | %147
 ^F,,2 z2 G,,2 z2 | A,,2 z2 B,,2 z2 | ^F,,2 z2 G,,2 z2 | A,,2 z2 B,,2 B,,2 | x8 | x8 | x8 | x8 | %155
 x8 | x8 | x8 | x8 | x8 | x8 | x8 | x8 | (_D,2 C,2 =B,,2 C,2) | (_D,2 C,2 =B,,2 C,2) | x8 | x8 | %167
 _D,2 z2 B,,2 z2 | C,2 z2 C,2 z2 | F,2 x6 | [F,-A,]8 | F,4 F,2 x2 | x8 | x8 | [F,-A,]8 | %175
 F,4 F,2 x2 | F,2 (D,2 G,2) (C,2 | F,2) x6 | x8 | x8 | C,2 z2 C,2 z2 | (([C,=E,]4 F,2)) x2 | x8 | %183
 x8 | C,2 z2 C,2 z2 | (F,4 [C,=E,]2) x2 | [F,-A,]8 | F,4 F,2 x2 | x8 | x8 | [F,-A,]8 | %191
 F,4 F,2 [=E,G,]2 | D,4 D,2 [D,F,]2 | C,4 C,2 x2 | x8 | x8 | x8 | x8 | x8 | x8 | x8 | x4 F,2 z2 | %202
 x8 | x8 | x8 | x8 | x8 | x8 |[K:treble] x8 | x8 | x4[K:bass] x4 | x8 | x8 | x8 | x8 | x8 | x8 | %217
 x8 | x8 | x8 | x8 | x8 | x8 | x8 | x8 | x8 | x8 | x6 E,,_G,, | _C,2 B,,C, x4 | x8 | x8 | x8 | x8 | %233
 x8 | x8 | x8 | x8 | x8 | x8 | x8 | x8 | x8 | x8 | x8 | x8 | x8 | x8 | x8 | x8 | x8 | x8 | x8 | %252
 x8 | x8 | x8 | x8 | x8 | x8 | x8 | x8 | x8 | x8 | x8 | x8 | x8 | x8 | x8 | x8 | x8 | x8 | x8 | %271
 x8 | x8 | x8 | x8 | x8 |[K:treble] x8 | x8 | x8 | x8 |[K:bass] x8 | x8 | x8 | x8 | x8 | x8 | x8 | %287
 x8 | x8 | x8 | x8 | x8 | x8 | x8 | x8 | x8 | x8 | x8 | x8 | x8 | x8 | x8 | x8 | x8 | x8 | x8 | %306
 x8 | x8 | x8 | x8 | x8 | x8 | x8 | x8 | x8 | x8 | x8 | x8 | x8 | x8 | x8 | x8 | x8 | x8 | x8 | %325
 x8 | x8 | x8 | x8 | x8 | x8 | x8 | x8 | x8 | x8 | x8 | x8 | x8 | x8 | x8 | x8 | x8 | x8 | x8 | %344
 x8 | x8 | x8 | x8 | x8 | x8 | x8 | x8 | x8 | x8 | x8 | x8 | x8 | x8 | x8 | x8 | x8 | x8 | x8 | %363
 x8 | x8 | x8 | x8 | x8 | x8 | x8 | x8 | x8 | x8 | x8 | x8 | x8 | x8 | x8 | x8 | x8 | x8 | x8 | %382
 x8 | x8 | x8 | x8 | x8 | x8 | x8 | x8 | x8 | x8 | x8 | x8 | x8 | x8 | x8 | x8 | x8 | x8 | x8 | %401
 x8 | x8 | x8 | x8 | x8 | x8 | x8 | x8 | x8 | x8 | x8 | x8 | x8 | x8 | x8 | x8 | x8 | x8 | x8 | %420
 x8 | x8 | x8 | x8 | x8 | x8 | x8 | x8 | x8 | x8 | x8 | x8 | x8 | x8 | x8 | x8 | x8 | x8 | x8 | %439
 x8 | x8 | x8 | x8 | x8 | x8 | x8 | x8 | x8 | x8 | x8 | x8 | x8 | x8 | x8 | x8 | x8 | x8 | x8 | %458
 x8 | x8 | x8 | x8 | x8 | x8 | x8 | x8 | x8 | x8 | x8 | x8 | x8 | x8 | x8 | x8 | x8 | x8 | x8 | %477
 x8 | x8 | x8 | x8 | x8 | x8 | x8 | x8 | x8 | x8 | x8 | x8 | x8 | x8 | x8 | x8 | x8 | x8 | x8 | %496
 x8 | x8 | x8 | x8 | x8 | x8 | x8 | x8 | x8 | x8 | x8 | x8 | x8 | x8 | x8 | x8 | x8 | x8 | x8 | %515
 x8 | x8 | x8 | x8 | x8 | x8 | x8 | x8 | x8 | x8 | x8 | x8 | x8 | x8 | x8 | x8 | x8 | x8 | x8 | %534
 x8 | x8 | x8 | x8 | x8 | x8 | x8 | x8 | x8 | x8 | x8 | x8 | x8 | x8 | x8 | x8 | x8 | x8 | x8 | %553
 x8 | x8 | x8 | x8 | x8 | x8 | x8 | x8 |] %561
V:4
 x8 | x8 | x8 | x8 | x8 | x8 | x8 | x8 | x8 | x8 | x6 [EA]2 | [DF]2 x6 | x8 | x8 | x8 | x8 | x8 | %17
 x8 | x8 | x8 | x8 | x8 | x8 | x8 | x8 | x8 | x8 | x8 | x8 | x8 | x8 | x8 | x8 | x8 | x8 | x8 | %36
 x8 | x8 | x8 | x8 | x8 | x8 | x8 | x8 | x8 | x8 | x8 | x8 | x8 | x8 | x8 | x8 | x8 | x8 | x8 | %55
 x8 | x8 | x8 | x8 | x8 | x8 | x8 | x8 | x8 | x8 | x8 | x8 | x8 | x6 F2 | =E2 x6 | x8 | x8 | %72
 x6 F2 | =E2 x6 | x8 | x8 | x8 | x8 | x8 | x8 | x8 | x8 | x8 | x8 | x8 | x8 | x8 | x8 | x8 | x8 | %90
 x8 | x8 | x8 | x8 | x8 | x8 | x8 | x8 | x8 | x8 | x8 | x8 | x8 | x8 | x8 | x8 | x8 | x8 | x8 | %109
 x8 | x8 || x8 | x8 | x8 | x8 | x8 | x8 | x8 | x8 | x8 | x8 | x6 [EA]2 | [DF]2 x6 | x8 | x8 | x8 | %126
 x8 | x8 | x8 | x8 | x8 | x8 | x8 | x8 | x8 | x8 | x8 | x8 | x8 | x8 | x8 | x8 | x8 | x8 | x8 | %145
 x8 | x8 | x8 | x8 | x8 | x8 | x8 | x8 | x8 | x8 | x8 | x8 | x8 | x8 | x8 | x8 | x8 | x8 | x8 | %164
 x8 | x8 | x8 | x8 | x8 | x8 | x8 | x8 | x8 | x8 | x8 | x8 | x8 | x8 | x8 | x6 F2 | =E2 x6 | x8 | %182
 x8 | x6 F2 | =E2 x6 | x8 | x8 | x8 | x8 | x8 | x8 | x8 | x8 | x8 | x8 | x8 | x8 | x8 | x8 | x8 | %200
 x8 | x8 | x8 | x8 | x8 | x8 | x8 | x8 | x8 | x8 | x8 | x8 | x8 | x8 | x8 | x8 | x8 | x8 | x8 | %219
 x8 | x8 | x8 | x8 | x8 | x8 | x8 | x8 | x8 | x8 | x8 | x8 | x8 | x8 | x8 | x8 | x8 | x8 | x8 | %238
 x8 | x8 | x8 | x8 | x8 | x8 | x8 | x8 | x8 | x8 | x8 | x8 | x8 | x8 | x8 | x8 | x8 | x8 | x8 | %257
 x8 | x8 | x8 | x8 | x8 | x8 | x8 | x8 | x8 | x8 | x8 | x8 | x8 | x8 | x8 | x8 | x8 | x8 | x8 | %276
 x8 | x8 | x8 | x8 | x8 | x8 | x8 | x8 | x8 | x8 | x8 | x8 | x8 | x8 | x8 | x8 | x8 | x8 | x8 | %295
 x8 | x8 | x8 | x8 | x8 | x8 | x8 | x8 | x8 | x8 | x8 | x8 | x8 | x8 | x8 | x8 | x8 | x8 | x8 | %314
 x8 | x8 | x8 | x8 | x8 | x8 | x8 | x8 | x8 | x8 | x8 | x8 | x8 | x8 | x8 | x8 | x8 | x8 | x8 | %333
 x8 | x8 | x8 | x8 | x8 | x8 | x8 | x8 | x8 | x8 | x8 | x8 | x8 | x8 | x8 | x8 | x8 | x8 | x8 | %352
 x8 | x8 | x8 | x8 | x8 | x8 | x8 | x8 | x8 | x8 | x8 | x8 | x8 | x8 | x8 | x8 | x8 | x8 | x8 | %371
 x8 | x8 | x8 | x8 | x8 | x8 | x8 | x8 | x8 | x8 | x8 | x8 | x8 | x8 | x8 | x8 | x8 | x8 | x8 | %390
 x8 | x8 | x8 | x8 | x8 | x8 | x8 | x8 | x8 | x8 | x8 | x8 | x8 | x8 | x8 | x8 | x8 | x8 | x8 | %409
 x8 | x8 | x8 | x8 | x8 | x8 | x8 | x8 | x8 | x8 | x8 | x8 | x8 | x8 | x8 | x8 | x8 | x8 | x8 | %428
 x8 | x8 | x8 | x8 | x8 | x8 | x8 | x8 | x8 | x8 | x8 | x8 | x8 | x8 | x8 | x8 | x8 | x8 | x8 | %447
 x8 | x8 | x8 | x8 | x8 | x8 | x8 | x8 | x8 | x8 | x8 | x8 | x8 | x8 | x8 | x8 | x8 | x8 | x8 | %466
 x8 | x8 | x8 | x8 | x8 | x8 | x8 | x8 | x8 | x8 | x8 | x8 | x8 | x8 | x8 | x8 | x8 | x8 | x8 | %485
 x8 | x8 | x8 | x8 | x8 | x8 | x8 | x8 | x8 | x8 | x8 | x8 | x8 | x8 | x8 | x8 | x8 | x8 | x8 | %504
 x8 | x8 | x8 | x8 | x8 | x8 | x8 | x8 | x8 | x8 | x8 | x8 | x8 | x8 | x8 | x8 | x8 | x8 | x8 | %523
 x8 | x8 | x8 | x8 | x8 | x8 | x8 | x8 | x8 | x8 | x8 | x8 | x8 | x8 | x8 | x8 | x8 | x8 | x8 | %542
 x8 | x8 | x8 | x8 | x8 | x8 | x8 | x8 | x8 | x8 | x8 | x8 | x8 | x8 | x8 | x8 | x8 | x8 | x8 |] %561

